!!!COM: Beethoven
!!!OTL: Acht Variationen uber das Trio "Tandeln und Scherzen" aus der Oper: Soliman oder die drei Sultaninnen von Sussmayer
!!!Variation: Variation 8 f
**function	**harm	**kern	**kern
*	*	*clefG2	*clefG2
*	*	*k[b-]	*k[b-]
*M2/4	*M2/4	*M2/4	*M2/4
*F:	*F:	*F:	*F:
=257	=257	=257	=257
2T	2I/VI	8d	8ddL 8ff# 8aa
.	.	4f#	8ddJ 8ff# 8aa
.	.	.	8ddL 8ff# 8aa
.	.	8d	8ddJ 8ff# 8aa
=258	=258	=258	=258
2T	2V/VI	4a	8cc#L 8ee 8aa
.	.	.	8cc#J 8ee 8aa
.	.	(16g#LL	8cc#L 8ee 8aa
.	.	16a	.
.	.	16b	8cc#J 8ee 8aa
.	.	16aJJ)	.
=259	=259	=259	=259
2T	2V7c/VI	8g'L	8cc#L 8ee 8aa
.	.	8g'	8cc#J 8ee 8aa
.	.	8e'	8cc#L 8ee 8aa
.	.	8a'J	8cc#J 8ee 8aa
=260	=260	=260	=260
2T	2Ib/VI	8f#'L	8dd'L 8ff#' 8aa'
.	.	8d'J	8dd'J 8ff#' 8aa'
.	.	4r	(16gg#LL
.	.	.	16aa
.	.	.	16bb
.	.	.	16aaJJ)
=261	=261	=261	=261
2T	2Vb/VI	8c#L 8e 8a	8gg'L
.	.	8c#J 8e 8a	8ee'J
.	.	8c#L 8e 8a	4r
.	.	8c#J 8e 8a	.
*	*	*	*clefF4
=262	=262	=262	=262
2T	2I/VI	8dL 8f# 8a	8F#'L
.	.	8dJ 8f# 8a	8D'J
.	.	8dL 8f# 8a	4r
.	.	8dJ 8f# 8a	.
*	*	*	*clefG2
=263	=263	=263	=263
2T	2Vb/VI	8c#L 8e 8a	8gg'L
.	.	8c#J 8e 8a	8ee'J
.	.	8c#L 8e 8a	4r
.	.	8c#J 8e 8a	.
*	*	*	*clefF4
=264	=264	=264	=264
2T	2vi	8dL 8f 8a	8Fn'L
.	.	8dJ 8f 8a	8D'J
.	.	8dL 8f 8a	4r
.	.	8dJ 8f 8a	.
*	*	*	*clefG2
=265	=265	=265	=265
2T	2Ib	8AL 8c 8f	8ee-'L
.	.	8AJ 8c 8f	8cc'J
.	.	8AL 8c 8f	4r
.	.	8AJ 8c 8f	.
*	*	*	*clefF4
=266	=266	=266	=266
2T	2IV	8B-L 8d 8f	8DL
.	.	8B-J 8d 8f	8BB-J
.	.	8B-L 8d 8f	4r
.	.	8B-J 8d 8f	.
*	*	*clefF4	*clefG2
=267	=267	=267	=267
2T	2V/ii	8F#L 8A 8d	8ccL
.	.	8F#J 8A 8d	8aJ
.	.	8F#L 8A 8d	4r
.	.	8F#J 8A 8d	.
*	*	*	*clefF4
=268	=268	=268	=268
2T	2ii	8GL 8B- 8d	8BB-L
.	.	8GJ 8B- 8d	8GGJ
.	.	8GL 8B- 8d	4r
.	.	8GJ 8B- 8d	.
*	*	*	*clefG2
=269	=269	=269	=269
2T	2V7b	8EL 8G 8c	8b-L
.	.	8EJ 8G 8c	8gJ
.	.	8EL 8G 8c	4r
.	.	8EJ 8G 8c	.
*	*	*	*clefF4
=270	=270	=270	=270
2T	2I	8FL 8A 8c	8AAL
.	.	8FJ 8A 8c	8FFJ
.	.	8FL 8A 8c	4r
.	.	8FJ 8A 8c	.
*	*	*	*clefG2
=271	=271	=271	=271
2T	2V7c	8GL 8B- 8c	8eeL
.	.	8GJ 8B- 8c	8ccJ
.	.	8GL 8B- 8c	4r
.	.	8GJ 8B- 8c	.
*	*	*	*clefF4
=272	=272	=272	=272
2T	2I	8FL 8A 8c	8FFL
.	.	8FJ 8A 8c	8CCJ
.	.	8FL 8A 8c	4r
.	.	8FJ 8A 8c	.
*	*	*	*clefG2
=273	=273	=273	=273
2T	2V7b	8EL 8G 8c	8b-L
.	.	8EJ 8G 8c	8gJ
.	.	8EL 8G 8c	4r
.	.	8EJ 8G 8c	.
*	*	*	*clefF4
=274	=274	=274	=274
2T	2I	8FL 8A 8c	8AAL
.	.	8FJ 8A 8c	8FFJ
.	.	8FL 8A 8c	4r
.	.	8FJ 8A 8c	.
*	*	*	*clefG2
=275	=275	=275	=275
2T	2V7c	8GL 8B- 8c	8eeL
.	.	8GJ 8B- 8c	8ccJ
.	.	8GL 8B- 8c	4r
.	.	8GJ 8B- 8c	.
*	*	*	*clefF4
=276	=276	=276	=276
2T	2I	8FL 8A 8c	8FFL
.	.	8FJ 8A 8c	8CCJ
.	.	8FL 8A 8c	4r
.	.	8FJ 8A 8c	.
*	*	*	*clefG2
=277	=277	=277	=277
2T	2V7b	8EL 8G 8c	8ggL
.	.	8EJ 8G 8c	8ccJ
.	.	8EL 8G 8c	4r
.	.	8EJ 8G 8c	.
*	*	*	*clefF4
=278	=278	=278	=278
2D	2IV/V[I]	8FL 8A 8c	8AAL
.	.	8FJ 8A 8c	8CCJ
.	.	8FL 8A 8c	4r
.	.	8FJ 8A 8c	.
*	*	*	*clefG2
=279	=279	=279	=279
2D	2V7d/V	8FL 8G 8d	8bbL
.	.	8FJ 8G 8d	8ccJ
.	.	8FL 8G 8d	4r
.	.	8FJ 8G 8d	.
*	*	*	*clefF4
=280	=280	=280	=280
2D	2Ib/V	8EL 8G 8c	8CL
.	.	8EJ 8G 8c	8CCJ
.	.	8EL 8G 8c	4r
.	.	8EJ 8G 8c	.
*	*	*	*clefG2
=281	=281	=281	=281
2D	2V7d/V	8FL 8G 8d	8bbL
.	.	8FJ 8G 8d	8ccJ
.	.	8FL 8G 8d	4r
.	.	8FJ 8G 8d	.
*	*	*	*clefF4
=282	=282	=282	=282
2D	2Ib/V	8EL 8G 8c	8CL
.	.	8EJ 8G 8c	8CCJ
.	.	8EL 8G 8c	4r
.	.	8EJ 8G 8c	.
*	*	*	*clefG2
=283	=283	=283	=283
2D	2V7d/V	8FL 8G 8d	8bbL
.	.	8FJ 8G 8d	8ccJ
.	.	8FL 8G 8d	4r
.	.	8FJ 8G 8d	.
=284	=284	=284	=284
2D	2Ib/V	8EL 8G 8c	8cccL
.	.	8EJ 8G 8c	8ccJ
.	.	8EL 8G 8c	4r
.	.	8EJ 8G 8c	.
=285	=285	=285	=285
2D	2IVb	8DL 8F 8B-	8bb-L
.	.	8DJ 8F 8B-	8b-J
.	.	8DL 8F 8B-	4r
.	.	8DJ 8F 8B-	.
=286	=286	=286	=286
2D	2iiib	8CL 8E 8A	8aaL
.	.	8CJ 8E 8A	8aJ
.	.	8CL 8E 8A	4r
.	.	8CJ 8E 8A	.
=287	=287	=287	=287
2D	2iib	8BB-L 8D 8G	8ggL
.	.	8BB-J 8D 8G	8gJ
.	.	8BB-L 8D 8G	4r
.	.	8BB-J 8D 8G	.
=288	=288	=288	=288
4D	4Ib	4AA' 4C' 4F'	16ffLL
.	.	.	16cc
.	.	.	16a
.	.	.	16fJJ
4D	4iib	4BB-' 4D' 4G'	16ddLL
.	.	.	16b-
.	.	.	16g
.	.	.	16dJJ
=289	=289	=289	=289
4D	4Cc	4C' 4F' 4A'	16ccLL
.	.	.	16a
.	.	.	16f
.	.	.	16cJJ
4D	4V7	4CC 4C	16eLL
.	.	.	16c
.	.	.	16B-
.	.	.	16GJJ
*-	*-	*-	*-
